X:1
T:Title
%%score [ ( 1 2 ) ( 3 4 ) ]
L:1/8
Q:1/4=240
M:4/4
K:Db
V:1 treble nm="Midi_74"
V:2 treble 
V:3 bass nm="Midi_74"
V:4 bass 
V:1
"^J. Stainer, from Beethoven" F8 | E4 E4 | A8 | G8 | F4 A4 | d4 e4 | A8 || B8 | E4 E4 | A8 | =D8 | %11
 G4 F2 E2 | D4 C4 | D8 |] %14
V:2
 D8 | D4 C4 | D8 | E8 | D4 E4 | F4 E2 D2 | C8 || E8 | E4 E4 | E8 | =D8 | E4 B,4 | A,4 A,4 | A,8 |] %14
V:3
 A,8 | A,4 A,4 | A,8 | A,8 | A,4 A,4 | A,4 =G,4 | A,8 || B,8 | B,4 B,4 | _C8 | B,8 | B,4 A,2 G,2 | %12
 F,4 E,4 | F,8 |] %14
V:4
 D,8 | G,4 G,4 | F,8 | C,8 | D,4 C,4 | B,,4 E,4 | A,8 || G,8 | G,4 G,4 | F,8 | B,,8 | E,4 G,,4 | %12
 A,,4 A,,4 | D,8 |] %14

